X: 1395
T: Robin Redbreast   #2
R: reel
N: Cronin
B: O'Neill's 1850 #1395
Z: Bob Safranek, rjs@gsp.org
M: C|
L: 1/8
K: A
(cd) |:\
ecAB c3d | edce dBGB |\
[1 AGAB cBcd | efge afgf :|\
[2 AGAf gfgf | edcB A2 |]
(cd) |:\
eaag efge | dBge dBGB |\
[1 AGAB cBcd | e^def gfed :|\
[2 ABcd efge | dBGB A2 |]
